fs/mail_edit_20_filled.svg

<svg viewBox="0 0 20 20" fill="none" xmlns="http://www.w3.org/2000/svg" height="1em" width="1em">
  <path d="M18.0001 6.37398V9.13392C17.0112 8.82095 15.8862 9.05653 15.1021 9.84065L10.2727 14.6701C9.90073 15.042 9.62692 15.4993 9.47444 16.001H4.50008C3.11937 16.001 2 14.8817 2 13.501V6.37398L9.74657 10.9319C9.90304 11.024 10.0971 11.024 10.2536 10.9319L18.0001 6.37398ZM15.5001 3.00098C16.7871 3.00098 17.847 3.97358 17.9849 5.22391L10.0001 9.92089L2.01526 5.22391C2.15312 3.97358 3.21302 3.00098 4.50008 3.00098H15.5001ZM10.9798 15.3772L15.8092 10.5478C16.5395 9.81741 17.7237 9.81741 18.454 10.5478C19.1843 11.2781 19.1843 12.4622 18.454 13.1926L13.6246 18.022C13.343 18.3036 12.9902 18.5033 12.6039 18.5999L11.106 18.9744C10.4546 19.1372 9.86451 18.5472 10.0274 17.8958L10.4018 16.3979C10.4984 16.0116 10.6982 15.6588 10.9798 15.3772Z" fill="#212121"/>
</svg>

<svg viewBox="0 0 20 20" fill="none" xmlns="http://www.w3.org/2000/svg" height="1em" width="1em">
  <path d="M18 6.374v2.76a2.87 2.87 0 0 0-2.898.707l-4.83 4.83a3.2 3.2 0 0 0-.798 1.33H4.5a2.5 2.5 0 0 1-2.5-2.5V6.374l7.747 4.558a.5.5 0 0 0 .507 0L18 6.374Zm-2.5-3.373a2.5 2.5 0 0 1 2.485 2.223L10 9.92 2.015 5.224A2.5 2.5 0 0 1 4.5 3h11Zm-4.52 12.376 4.83-4.83a1.87 1.87 0 1 1 2.644 2.646l-4.83 4.829a2.197 2.197 0 0 1-1.02.578l-1.498.374a.89.89 0 0 1-1.079-1.078l.375-1.498a2.18 2.18 0 0 1 .578-1.02Z" fill="#212121"/>
</svg>
